app/images/dist/Icon/slide__icon-4.svg

<svg width="16" height="16" viewBox="0 0 16 16" fill="none" xmlns="http://www.w3.org/2000/svg">
<path d="M11.3333 6.13366L14.8087 3.70033C14.8586 3.6653 14.9173 3.64466 14.9782 3.64066C15.0391 3.63666 15.0999 3.64946 15.154 3.67766C15.2081 3.70585 15.2535 3.74836 15.2851 3.80056C15.3167 3.85276 15.3334 3.91263 15.3333 3.97366V12.027C15.3334 12.088 15.3167 12.1479 15.2851 12.2001C15.2535 12.2523 15.2081 12.2948 15.154 12.323C15.0999 12.3512 15.0391 12.364 14.9782 12.36C14.9173 12.356 14.8586 12.3354 14.8087 12.3003L11.3333 9.86699V12.667C11.3333 12.8438 11.2631 13.0134 11.1381 13.1384C11.013 13.2634 10.8435 13.3337 10.6667 13.3337H1.33332C1.15651 13.3337 0.986943 13.2634 0.861919 13.1384C0.736894 13.0134 0.666656 12.8438 0.666656 12.667V3.33366C0.666656 3.15685 0.736894 2.98728 0.861919 2.86225C0.986943 2.73723 1.15651 2.66699 1.33332 2.66699H10.6667C10.8435 2.66699 11.013 2.73723 11.1381 2.86225C11.2631 2.98728 11.3333 3.15685 11.3333 3.33366V6.13366ZM3.33332 5.33366V6.66699H4.66666V5.33366H3.33332Z" fill="white"/>
</svg>

<svg width="16" height="16" fill="none" xmlns="http://www.w3.org/2000/svg"><path d="M11.333 6.134L14.81 3.7a.333.333 0 01.524.274v8.053a.333.333 0 01-.524.273l-3.476-2.433v2.8a.667.667 0 01-.666.667H1.333a.667.667 0 01-.666-.667V3.334a.667.667 0 01.666-.667h9.334a.667.667 0 01.666.667v2.8zm-8-.8v1.333h1.334V5.334H3.333z" fill="#fff"/></svg>
